!!!COM:	Brumel, Antoine
!!!CDT:	~1460-~1512
!!!OPR:	Missa Et ecce terre motus
!!!ONM:	5
!!!OTL:	Agnus Dei
!!!AGN:	Mass; Agnus Dei
!!!SCT:	Bru1008e
!!!SCA:	Bru1008e
!!!voices:	12
!!!voices-OPR:	12
**kern	**text	**kern	**text	**kern	**text	**kern	**text	**kern	**text	**kern	**text	**kern	**text	**kern	**text	**kern	**text	**kern	**text	**kern	**text	**kern	**text
*Ivox	*	*Ivox	*	*Ivox	*	*Ivox	*	*Ivox	*	*Ivox	*	*Ivox	*	*Ivox	*	*Ivox	*	*Ivox	*	*Ivox	*	*Ivox	*
*I"Bassus3	*	*I"Bassus2	*	*I"Bassus1	*	*I"Tenor3	*	*I"Tenor2	*	*I"Tenor1	*	*I"Contratenor3	*	*I"Contratenor2	*	*I"Contratenor1	*	*I"Discantus3	*	*I"Discantus2	*	*I"Discantus1	*
*I'B3	*	*I'B2	*	*I'B1	*	*I'T3	*	*I'T2	*	*I'T1	*	*I'Ct3	*	*I'Ct2	*	*I'Ct1	*	*I'D3	*	*I'D2	*	*I'D1	*
*staff12	*staff12	*staff11	*staff11	*staff10	*staff10	*staff9	*staff9	*staff8	*staff8	*staff7	*staff7	*staff6	*staff6	*staff5	*staff5	*staff4	*staff4	*staff3	*staff3	*staff2	*staff2	*staff1	*staff1
*clefF4	*	*clefF4	*	*clefF4	*	*clefGv2	*	*clefGv2	*	*clefGv2	*	*clefGv2	*	*clefGv2	*	*clefGv2	*	*clefG2	*	*clefG2	*	*clefG2	*
*k[]	*	*k[]	*	*k[]	*	*k[]	*	*k[]	*	*k[]	*	*k[]	*	*k[]	*	*k[]	*	*k[]	*	*k[]	*	*k[]	*
*M2/1	*	*M2/1	*	*M2/1	*	*M2/1	*	*M2/1	*	*M2/1	*	*M2/1	*	*M2/1	*	*M2/1	*	*M2/1	*	*M2/1	*	*M2/1	*
*met(O2)	*	*met(O2)	*	*met(O2)	*	*met(O2)	*	*met(O2)	*	*met(O2)	*	*met(O2)	*	*met(O2)	*	*met(O2)	*	*met(O2)	*	*met(O2)	*	*met(O2)	*
=1-	=1-	=1-	=1-	=1-	=1-	=1-	=1-	=1-	=1-	=1-	=1-	=1-	=1-	=1-	=1-	=1-	=1-	=1-	=1-	=1-	=1-	=1-	=1-
!!section: Agnus Dei I
!!!OMD: Agnus Dei I
0r	.	0r	.	1r	.	0r	.	0G	A-	1.d	A-	0r	.	0r	.	0r	.	0r	.	1dd	A-	0g	A-
.	.	.	.	[1G	A-	.	.	.	.	.	.	.	.	.	.	.	.	.	.	2b	.	.	.
.	.	.	.	.	.	.	.	.	.	[2B	.	.	.	.	.	.	.	.	.	2g	.	.	.
=2.	=2.	=2.	=2.	=2.	=2.	=2.	=2.	=2.	=2.	=2.	=2.	=2.	=2.	=2.	=2.	=2.	=2.	=2.	=2.	=2.	=2.	=2.	=2.
0r	.	0r	.	2G]	.	1.g	A-	0G	-gnus	2B]	.	0r	.	1r	.	0r	.	0r	.	2.g	-gnus	1g	-gnus
.	.	.	.	1E	.	.	.	.	.	2G	.	.	.	.	.	.	.	.	.	.	.	.	.
.	.	.	.	.	.	.	.	.	.	.	.	.	.	.	.	.	.	.	.	4a	.	.	.
.	.	.	.	.	.	.	.	.	.	1G	-gnus,	.	.	[1g	A-	.	.	.	.	2b	.	1g	De-
.	.	.	.	2C	.	[2e	.	.	.	.	.	.	.	.	.	.	.	.	.	2cc	.	.	.
=3.	=3.	=3.	=3.	=3.	=3.	=3.	=3.	=3.	=3.	=3.	=3.	=3.	=3.	=3.	=3.	=3.	=3.	=3.	=3.	=3.	=3.	=3.	=3.
0r	.	0r	.	2.C	-gnus	2e]	.	0E	.	1c	.	0r	.	2g]	.	0r	.	0r	.	2g	.	0g	-i,
.	.	.	.	.	.	2c	.	.	.	.	.	.	.	1e	.	.	.	.	.	1cc	De-	.	.
.	.	.	.	8BBL	.	.	.	.	.	.	.	.	.	.	.	.	.	.	.	.	.	.	.
.	.	.	.	8AAJ	.	.	.	.	.	.	.	.	.	.	.	.	.	.	.	.	.	.	.
.	.	.	.	2.C	.	1c	-gnus	.	.	[1g	A-	.	.	.	.	.	.	.	.	.	.	.	.
.	.	.	.	.	.	.	.	.	.	.	.	.	.	2c	.	.	.	.	.	4b	.	.	.
.	.	.	.	4D	.	.	.	.	.	.	.	.	.	.	.	.	.	.	.	4a	.	.	.
=4	=4	=4	=4	=4	=4	=4	=4	=4	=4	=4	=4	=4	=4	=4	=4	=4	=4	=4	=4	=4	=4	=4	=4
0C	A-	1.G	A-	2.E	.	1r	.	[0G	.	2g]	.	0c	A-	1c	-gnus	1g	A-	0r	.	2g	-i,	1.g	A-
.	.	.	.	.	.	.	.	.	.	1e	.	.	.	.	.	.	.	.	.	2.cc	A-	.	.
.	.	.	.	4C	.	.	.	.	.	.	.	.	.	.	.	.	.	.	.	.	.	.	.
.	.	.	.	2.E	.	[1G	De-	.	.	.	.	.	.	1r	.	2e	.	.	.	.	.	.	.
.	.	.	.	.	.	.	.	.	.	.	.	.	.	.	.	.	.	.	.	4dd	.	.	.
.	.	[2E	.	.	.	.	.	.	.	2c	.	.	.	.	.	2c	.	.	.	2ee	.	[2cc	-gnus
.	.	.	.	4F	.	.	.	.	.	.	.	.	.	.	.	.	.	.	.	.	.	.	.
=5.	=5.	=5.	=5.	=5.	=5.	=5.	=5.	=5.	=5.	=5.	=5.	=5.	=5.	=5.	=5.	=5.	=5.	=5.	=5.	=5.	=5.	=5.	=5.
0C	-gnus	2E]	.	1G	.	2G]	.	0G]	.	1c	-gnus	1c	-gnus	1.G	De-	2.e	-gnus	0r	.	2.cc	-gnus	4cc]	.
.	.	.	.	.	.	.	.	.	.	.	.	.	.	.	.	.	.	.	.	.	.	4dd	.
.	.	2C	.	.	.	1E	.	.	.	.	.	.	.	.	.	.	.	.	.	.	.	2ee	.
.	.	.	.	.	.	.	.	.	.	.	.	.	.	.	.	4f	.	.	.	8bL	.	.	.
.	.	.	.	.	.	.	.	.	.	.	.	.	.	.	.	.	.	.	.	8aJ	.	.	.
.	.	[1C	-gnus	1C	De-	.	.	.	.	2.e	De-	1c	De-	.	.	1g	.	.	.	2g	.	[1cc	.
.	.	.	.	.	.	2C	.	.	.	.	.	.	.	[2E	.	.	.	.	.	[2cc	De-	.	.
.	.	.	.	.	.	.	.	.	.	4d	.	.	.	.	.	.	.	.	.	.	.	.	.
=6.	=6.	=6.	=6.	=6.	=6.	=6.	=6.	=6.	=6.	=6.	=6.	=6.	=6.	=6.	=6.	=6.	=6.	=6.	=6.	=6.	=6.	=6.	=6.
0AA	.	2C]	.	0E	-i,	1C	-i,	0A	.	4c	.	0c	-i,	2E]	.	1e	.	0r	.	2cc]	.	2cc]	.
.	.	.	.	.	.	.	.	.	.	4B	.	.	.	.	.	.	.	.	.	.	.	.	.
.	.	4BB	.	.	.	.	.	.	.	2.c	.	.	.	2C	.	.	.	.	.	1a	.	2cc	De-
.	.	4AA	.	.	.	.	.	.	.	.	.	.	.	.	.	.	.	.	.	.	.	.	.
.	.	2.C	De-	.	.	1r	.	.	.	.	.	.	.	1C	-i,	2.A	De-	.	.	.	.	1cc	-i,
.	.	.	.	.	.	.	.	.	.	4A	.	.	.	.	.	.	.	.	.	.	.	.	.
.	.	.	.	.	.	.	.	.	.	[2c	.	.	.	.	.	.	.	.	.	4g	.	.	.
.	.	4D	.	.	.	.	.	.	.	.	.	.	.	.	.	4B	.	.	.	4f	.	.	.
=7	=7	=7	=7	=7	=7	=7	=7	=7	=7	=7	=7	=7	=7	=7	=7	=7	=7	=7	=7	=7	=7	=7	=7
[0C	.	2E	-i,	1r	.	2r	.	0G	De-	2c]	.	1.c	A-	2r	.	1.c	-i,	0c	A-	1e	-i,	1.g	A-
.	.	2C	A-	.	.	2.E	De-	.	.	4B	.	.	.	2.c	A-	.	.	.	.	.	.	.	.
.	.	.	.	.	.	.	.	.	.	4A	.	.	.	.	.	.	.	.	.	.	.	.	.
.	.	2.E	.	2r	.	.	.	.	.	1G	.	.	.	.	.	.	.	.	.	[1g	A-	.	.
.	.	.	.	.	.	4F	.	.	.	.	.	.	.	4G	.	.	.	.	.	.	.	.	.
.	.	.	.	2C	A-	[2G	.	.	.	.	.	[2e	-gnus	[2c	.	[2G	A-	.	.	.	.	[2e	.
.	.	4F	.	.	.	.	.	.	.	.	.	.	.	.	.	.	.	.	.	.	.	.	.
=8.	=8.	=8.	=8.	=8.	=8.	=8.	=8.	=8.	=8.	=8.	=8.	=8.	=8.	=8.	=8.	=8.	=8.	=8.	=8.	=8.	=8.	=8.	=8.
0C]	.	1G	.	2.E	.	2G]	.	0G	-i,	2.C	.	4e]	.	2c]	.	2G]	.	0c	-gnus	0g]	.	2e]	.
.	.	.	.	.	.	.	.	.	.	.	.	4f	.	.	.	.	.	.	.	.	.	.	.
.	.	.	.	.	.	4A	.	.	.	.	.	1g	.	4B	-gnus	2.c	-gnus	.	.	.	.	2c	.
.	.	.	.	4F	.	4B	.	.	.	4D	.	.	.	4A	.	.	.	.	.	.	.	.	.
.	.	1C	-gnus	[1G	.	1c	-i,	.	.	1E	-i,	.	.	1G	.	.	.	.	.	.	.	2c	-gnus
.	.	.	.	.	.	.	.	.	.	.	.	.	.	.	.	4d	.	.	.	.	.	.	.
.	.	.	.	.	.	.	.	.	.	.	.	2e	.	.	.	2e	.	.	.	.	.	2cc	.
=9.	=9.	=9.	=9.	=9.	=9.	=9.	=9.	=9.	=9.	=9.	=9.	=9.	=9.	=9.	=9.	=9.	=9.	=9.	=9.	=9.	=9.	=9.	=9.
0D	.	0r	.	2G]	.	2.F	A-	0r	.	0r	.	1a	De-	2r	.	0f	De-	0A	.	2.dd	-gnus	2r	.
.	.	.	.	4F	.	.	.	.	.	.	.	.	.	2.d	De-	.	.	.	.	.	.	2a	De-
.	.	.	.	4E	.	4G	.	.	.	.	.	.	.	.	.	.	.	.	.	4cc	.	.	.
.	.	.	.	1F	.	1A	-gnus	.	.	.	.	1d	-i,	.	.	.	.	.	.	1a	.	1dd	-i,
.	.	.	.	.	.	.	.	.	.	.	.	.	.	4c	.	.	.	.	.	.	.	.	.
.	.	.	.	.	.	.	.	.	.	.	.	.	.	2d	.	.	.	.	.	.	.	.	.
=10	=10	=10	=10	=10	=10	=10	=10	=10	=10	=10	=10	=10	=10	=10	=10	=10	=10	=10	=10	=10	=10	=10	=10
0C	De-	2r	.	1G	-gnus	3EV	De-	0r	.	2C	De-	1.g	A-	2G	-i,	1e	-i,	[0c	.	2r	.	1.ee	A-
.	.	.	.	.	.	3F	.	.	.	.	.	.	.	.	.	.	.	.	.	.	.	.	.
.	.	2C	De-	.	.	.	.	.	.	2.E	.	.	.	2.c	A-	.	.	.	.	1cc	De-	.	.
.	.	.	.	.	.	3GZ	.	.	.	.	.	.	.	.	.	.	.	.	.	.	.	.	.
.	.	2.E	.	2r	.	2C	-i,	.	.	.	.	.	.	.	.	2r	.	.	.	.	.	.	.
.	.	.	.	.	.	.	.	.	.	4F	.	.	.	4d	.	.	.	.	.	.	.	.	.
.	.	.	.	2C	De-	[2G	A-	.	.	2G	-i,	[2e	.	2e	.	[2E	A-	.	.	4b	.	[2cc	.
.	.	4F	.	.	.	.	.	.	.	.	.	.	.	.	.	.	.	.	.	4a	.	.	.
=11.	=11.	=11.	=11.	=11.	=11.	=11.	=11.	=11.	=11.	=11.	=11.	=11.	=11.	=11.	=11.	=11.	=11.	=11.	=11.	=11.	=11.	=11.	=11.
0C	-i,	1G	.	2.E	.	2G]	.	0r	.	2C	A-	2e]	.	2c	-gnus	4E]	.	0c]	.	2g	.	2cc]	.
.	.	.	.	.	.	.	.	.	.	.	.	.	.	.	.	4F	.	.	.	.	.	.	.
.	.	.	.	.	.	1E	.	.	.	2.E	.	2c	.	1g	De-	1G	-gnus	.	.	2.cc	.	4b	-gnus
.	.	.	.	4F	.	.	.	.	.	.	.	.	.	.	.	.	.	.	.	.	.	4a	.
.	.	1C	-i,	[1G	.	.	.	.	.	.	.	1c	-gnus	.	.	.	.	.	.	.	.	2g	.
.	.	.	.	.	.	.	.	.	.	4F	.	.	.	.	.	.	.	.	.	4dd	.	.	.
.	.	.	.	.	.	2C	.	.	.	4G	.	.	.	4f	.	[2G	De-	.	.	[2ee	.	[2cc	De-
.	.	.	.	.	.	.	.	.	.	4A	.	.	.	4e	.	.	.	.	.	.	.	.	.
=12.	=12.	=12.	=12.	=12.	=12.	=12.	=12.	=12.	=12.	=12.	=12.	=12.	=12.	=12.	=12.	=12.	=12.	=12.	=12.	=12.	=12.	=12.	=12.
0r	.	0GG	A-	2G]	.	0G	.	0r	.	4B	.	0r	.	2d	-i,	4G]	.	0d	.	2ee]	.	2cc]	.
.	.	.	.	.	.	.	.	.	.	4c	.	.	.	.	.	4A	.	.	.	.	.	.	.
.	.	.	.	4F	.	.	.	.	.	2d	.	.	.	2.G	A-	4B	.	.	.	4dd	.	4b	.
.	.	.	.	4E	.	.	.	.	.	.	.	.	.	.	.	4c	.	.	.	4cc	.	4a	.
.	.	.	.	1D	-i,	.	.	.	.	1G	-gnus	.	.	.	.	1d	-i,	.	.	1dd	.	1b	.
.	.	.	.	.	.	.	.	.	.	.	.	.	.	4A	.	.	.	.	.	.	.	.	.
.	.	.	.	.	.	.	.	.	.	.	.	.	.	2B	.	.	.	.	.	.	.	.	.
=13	=13	=13	=13	=13	=13	=13	=13	=13	=13	=13	=13	=13	=13	=13	=13	=13	=13	=13	=13	=13	=13	=13	=13
0r	.	0AA	-gnus	0r	.	1.E	-gnus	0A	qui	2.C	De-	1.e	De-	2E	-gnus	2r	.	0c	De-	[0a	-i,	[0cc	-i,
.	.	.	.	.	.	.	.	.	.	.	.	.	.	2.c	De-	2e	A-	.	.	.	.	.	.
.	.	.	.	.	.	.	.	.	.	4D	.	.	.	.	.	.	.	.	.	.	.	.	.
.	.	.	.	.	.	.	.	.	.	2E	.	.	.	.	.	2.c	-gnus	.	.	.	.	.	.
.	.	.	.	.	.	.	.	.	.	.	.	.	.	4B	.	.	.	.	.	.	.	.	.
.	.	.	.	.	.	[2c	De-	.	.	2C	.	[2f	.	[2A	.	.	.	.	.	.	.	.	.
.	.	.	.	.	.	.	.	.	.	.	.	.	.	.	.	4B	.	.	.	.	.	.	.
=14.	=14.	=14.	=14.	=14.	=14.	=14.	=14.	=14.	=14.	=14.	=14.	=14.	=14.	=14.	=14.	=14.	=14.	=14.	=14.	=14.	=14.	=14.	=14.
0r	.	2FF	De-	1r	.	2c]	.	0A	tol-	4F	.	2f]	.	2A]	.	2A	.	0c	-i,	0a]	.	1cc]	.
.	.	.	.	.	.	.	.	.	.	4G	.	.	.	.	.	.	.	.	.	.	.	.	.
.	.	2GG	.	.	.	4B	.	.	.	4A	.	4e	.	4G	.	2A	De-	.	.	.	.	.	.
.	.	.	.	.	.	4A	.	.	.	4B	.	4d	.	4F	.	.	.	.	.	.	.	.	.
.	.	1AA	.	1E	qui	1A	.	.	.	2c	.	1c	.	1E	-i,	1a	.	.	.	.	.	1r	.
.	.	.	.	.	.	.	.	.	.	[2A	.	.	.	.	.	.	.	.	.	.	.	.	.
=15.	=15.	=15.	=15.	=15.	=15.	=15.	=15.	=15.	=15.	=15.	=15.	=15.	=15.	=15.	=15.	=15.	=15.	=15.	=15.	=15.	=15.	=15.	=15.
0r	.	0D	-i,	1F	tol-	0A	-i,	0F	.	2A]	.	1d	-i,	2D	qui	0a	-i,	0r	.	1r	.	1d	qui
.	.	.	.	.	.	.	.	.	.	1d	.	.	.	2.F	tol-	.	.	.	.	.	.	.	.
.	.	.	.	2D	.	.	.	.	.	.	.	1r	.	.	.	.	.	.	.	1d	qui	2.f	tol-
.	.	.	.	.	.	.	.	.	.	.	.	.	.	4G	.	.	.	.	.	.	.	.	.
.	.	.	.	[2F	.	.	.	.	.	4c	.	.	.	2A	.	.	.	.	.	.	.	.	.
.	.	.	.	.	.	.	.	.	.	4B	.	.	.	.	.	.	.	.	.	.	.	4g	.
=16	=16	=16	=16	=16	=16	=16	=16	=16	=16	=16	=16	=16	=16	=16	=16	=16	=16	=16	=16	=16	=16	=16	=16
0D	qui	0r	.	4F]	.	0d	.	[0A	.	1A	-i,	2D	qui	1D	.	0r	.	0r	.	2.f	tol-	2a	.
.	.	.	.	4G	.	.	.	.	.	.	.	.	.	.	.	.	.	.	.	.	.	.	.
.	.	.	.	2A	.	.	.	.	.	.	.	2.F	tol-	.	.	.	.	.	.	.	.	1dd	.
.	.	.	.	.	.	.	.	.	.	.	.	.	.	.	.	.	.	.	.	4g	.	.	.
.	.	.	.	2D	-lis,	.	.	.	.	1r	.	.	.	1d	.	.	.	.	.	2a	.	.	.
.	.	.	.	.	.	.	.	.	.	.	.	4G	.	.	.	.	.	.	.	.	.	.	.
.	.	.	.	[2F	qui	.	.	.	.	.	.	2A	.	.	.	.	.	.	.	[2dd	.	4cc	.
.	.	.	.	.	.	.	.	.	.	.	.	.	.	.	.	.	.	.	.	.	.	4b	.
=17.	=17.	=17.	=17.	=17.	=17.	=17.	=17.	=17.	=17.	=17.	=17.	=17.	=17.	=17.	=17.	=17.	=17.	=17.	=17.	=17.	=17.	=17.	=17.
0D	tol-	0r	.	2F]	.	1r	.	0A]	.	0r	.	2D	-lis,	[0D	-lis,	0r	.	0r	.	2dd]	.	2a	.
.	.	.	.	2G	.	.	.	.	.	.	.	1d	qui	.	.	.	.	.	.	4cc	.	1g	.
.	.	.	.	.	.	.	.	.	.	.	.	.	.	.	.	.	.	.	.	4b	.	.	.
.	.	.	.	1D	tol-	1d	qui	.	.	.	.	.	.	.	.	.	.	.	.	1a	-lis,	.	.
.	.	.	.	.	.	.	.	.	.	.	.	2d	tol-	.	.	.	.	.	.	.	.	2f#i	.
=18.	=18.	=18.	=18.	=18.	=18.	=18.	=18.	=18.	=18.	=18.	=18.	=18.	=18.	=18.	=18.	=18.	=18.	=18.	=18.	=18.	=18.	=18.	=18.
0BB	.	1D	qui	0GG	-lis,	1d	tol-	0B	.	1r	.	0d	-lis,	0D]	.	1r	.	0r	.	2r	.	1g	-lis,
.	.	.	.	.	.	.	.	.	.	.	.	.	.	.	.	.	.	.	.	2.g	qui	.	.
.	.	1G	.	.	.	2B	.	.	.	1D	qui	.	.	.	.	1d	qui	.	.	.	.	2r	.
.	.	.	.	.	.	.	.	.	.	.	.	.	.	.	.	.	.	.	.	4f	.	.	.
.	.	.	.	.	.	[2d	.	.	.	.	.	.	.	.	.	.	.	.	.	2g	.	2d	qui
=19	=19	=19	=19	=19	=19	=19	=19	=19	=19	=19	=19	=19	=19	=19	=19	=19	=19	=19	=19	=19	=19	=19	=19
[0D	.	3FV	tol-	0r	.	2d]	.	0A	.	2D	tol-	0r	.	0r	.	2.f	tol-	0d	qui	2a	tol-	2.d	tol-
.	.	3G	.	.	.	.	.	.	.	.	.	.	.	.	.	.	.	.	.	.	.	.	.
.	.	.	.	.	.	4c	.	.	.	2.F	.	.	.	.	.	.	.	.	.	1dd	.	.	.
.	.	3AZ	.	.	.	.	.	.	.	.	.	.	.	.	.	.	.	.	.	.	.	.	.
.	.	.	.	.	.	4B	.	.	.	.	.	.	.	.	.	4g	.	.	.	.	.	4e	.
.	.	2D	.	.	.	1A	-lis,	.	.	.	.	.	.	.	.	2a	.	.	.	.	.	2f	.
.	.	.	.	.	.	.	.	.	.	4G	.	.	.	.	.	.	.	.	.	.	.	.	.
.	.	[2F	.	.	.	.	.	.	.	2A	.	.	.	.	.	[2a	.	.	.	4cc	.	2d	.
.	.	.	.	.	.	.	.	.	.	.	.	.	.	.	.	.	.	.	.	4b	.	.	.
=20.	=20.	=20.	=20.	=20.	=20.	=20.	=20.	=20.	=20.	=20.	=20.	=20.	=20.	=20.	=20.	=20.	=20.	=20.	=20.	=20.	=20.	=20.	=20.
0D]	.	2F]	.	0r	.	1r	.	0A	-lis	2D	-lis,	0D	qui	0r	.	4a]	.	0d	tol-	1a	.	2.f	.
.	.	.	.	.	.	.	.	.	.	.	.	.	.	.	.	4g	.	.	.	.	.	.	.
.	.	2G	.	.	.	.	.	.	.	2.d	qui	.	.	.	.	4f#i	.	.	.	.	.	.	.
.	.	.	.	.	.	.	.	.	.	.	.	.	.	.	.	4e	.	.	.	.	.	4g	.
.	.	1D	-lis,	.	.	1A	qui	.	.	.	.	.	.	.	.	1f#i	.	.	.	1f	.	1a	.
.	.	.	.	.	.	.	.	.	.	4c	.	.	.	.	.	.	.	.	.	.	.	.	.
.	.	.	.	.	.	.	.	.	.	2A	.	.	.	.	.	.	.	.	.	.	.	.	.
=21.	=21.	=21.	=21.	=21.	=21.	=21.	=21.	=21.	=21.	=21.	=21.	=21.	=21.	=21.	=21.	=21.	=21.	=21.	=21.	=21.	=21.	=21.	=21.
0E	.	0r	.	1r	.	2.E	tol-	0r	.	2.G	tol-	0G	.	1B	qui	1g	-lis,	0B	.	1e	-lis,	1r	.
.	.	.	.	.	.	.	.	.	.	.	.	.	.	.	.	.	.	.	.	.	.	.	.
.	.	.	.	.	.	4F	.	.	.	4A	.	.	.	.	.	.	.	.	.	.	.	.	.
.	.	.	.	1G	qui	2G	.	.	.	2B	.	.	.	1G	.	1r	.	.	.	1r	.	1e	-lis,
.	.	.	.	.	.	2E	.	.	.	2G	.	.	.	.	.	.	.	.	.	.	.	.	.
=22	=22	=22	=22	=22	=22	=22	=22	=22	=22	=22	=22	=22	=22	=22	=22	=22	=22	=22	=22	=22	=22	=22	=22
0D	.	0r	.	3FV	tol-	2A	.	0r	.	[0A	.	2D	tol-	2r	.	1a	qui	[0d	.	1a	qui	2.f	qui
.	.	.	.	3G	.	.	.	.	.	.	.	.	.	.	.	.	.	.	.	.	.	.	.
.	.	.	.	.	.	2D	.	.	.	.	.	2.F	.	1d	tol-	.	.	.	.	.	.	.	.
.	.	.	.	3AZ	.	.	.	.	.	.	.	.	.	.	.	.	.	.	.	.	.	.	.
.	.	.	.	.	.	.	.	.	.	.	.	.	.	.	.	.	.	.	.	.	.	4g	.
.	.	.	.	2D	.	2A	.	.	.	.	.	.	.	.	.	2.f	tol-	.	.	2.d	tol-	2a	.
.	.	.	.	.	.	.	.	.	.	.	.	4G	.	.	.	.	.	.	.	.	.	.	.
.	.	.	.	[2F	.	[2d	.	.	.	.	.	2A	.	4c	.	.	.	.	.	.	.	[2a	tol-
.	.	.	.	.	.	.	.	.	.	.	.	.	.	4B	.	4g	.	.	.	4e	.	.	.
=23.	=23.	=23.	=23.	=23.	=23.	=23.	=23.	=23.	=23.	=23.	=23.	=23.	=23.	=23.	=23.	=23.	=23.	=23.	=23.	=23.	=23.	=23.	=23.
0D	-lis	0r	.	2F]	.	2d]	.	0r	.	0A]	.	2D	-lis,	1A	.	2a	.	0d]	.	2f	.	4a]	.
.	.	.	.	.	.	.	.	.	.	.	.	.	.	.	.	.	.	.	.	.	.	4g	.
.	.	.	.	2G	.	4c	.	.	.	.	.	2.d	qui	.	.	2.d	.	.	.	2d	.	4f	.
.	.	.	.	.	.	4B	.	.	.	.	.	.	.	.	.	.	.	.	.	.	.	4e	.
.	.	.	.	1D	-lis,	2A	.	.	.	.	.	.	.	1d	-lis,	.	.	.	.	1a	-lis,	1f	.
.	.	.	.	.	.	.	.	.	.	.	.	4c	.	.	.	4e	.	.	.	.	.	.	.
.	.	.	.	.	.	2d	-lis,	.	.	.	.	2A	.	.	.	2f	.	.	.	.	.	.	.
=24.	=24.	=24.	=24.	=24.	=24.	=24.	=24.	=24.	=24.	=24.	=24.	=24.	=24.	=24.	=24.	=24.	=24.	=24.	=24.	=24.	=24.	=24.	=24.
0r	.	0C	qui,	1r	.	2r	.	0r	.	0G	.	0c	tol-	2G	qui	2e	.	0e	.	2r	.	1g	-lis,
.	.	.	.	.	.	2G	qui	.	.	.	.	.	.	2.E	tol-	2.c	.	.	.	2.cc	qui	.	.
.	.	.	.	1C	qui	2.E	tol-	.	.	.	.	.	.	.	.	.	.	.	.	.	.	2.g	qui
.	.	.	.	.	.	.	.	.	.	.	.	.	.	4F	.	4d	.	.	.	4b	.	.	.
.	.	.	.	.	.	.	.	.	.	.	.	.	.	[2G	.	4e	.	.	.	[2g	.	.	.
.	.	.	.	.	.	4C	.	.	.	.	.	.	.	.	.	4f	.	.	.	.	.	4a	.
=25	=25	=25	=25	=25	=25	=25	=25	=25	=25	=25	=25	=25	=25	=25	=25	=25	=25	=25	=25	=25	=25	=25	=25
0r	.	[0GG	.	1.D	tol-	1G	-lis	0B	pec-	1G	-lis,	2B	.	2G]	.	[0g	-lis	0d	.	4g]	.	2b	.
.	.	.	.	.	.	.	.	.	.	.	.	.	.	.	.	.	.	.	.	4a	.	.	.
.	.	.	.	.	.	.	.	.	.	.	.	1G	.	4F	.	.	.	.	.	4b	.	2.g	tol-
.	.	.	.	.	.	.	.	.	.	.	.	.	.	4E	.	.	.	.	.	4cc	.	.	.
.	.	.	.	.	.	2r	.	.	.	2r	.	.	.	1D	-lis,	.	.	.	.	1dd	.	.	.
.	.	.	.	.	.	.	.	.	.	.	.	.	.	.	.	.	.	.	.	.	.	4a	.
.	.	.	.	[2G	.	[2d	pec-	.	.	[2D	qui	4F	.	.	.	.	.	.	.	.	.	4b	.
.	.	.	.	.	.	.	.	.	.	.	.	4E	.	.	.	.	.	.	.	.	.	4cc	.
=26.	=26.	=26.	=26.	=26.	=26.	=26.	=26.	=26.	=26.	=26.	=26.	=26.	=26.	=26.	=26.	=26.	=26.	=26.	=26.	=26.	=26.	=26.	=26.
0r	.	0GG]	.	2G]	.	4d]	.	0B	-ca-	2D]	.	1D	.	2.G	qui	0g]	.	0d	-lis	2b	tol-	1dd	.
.	.	.	.	.	.	4c	.	.	.	.	.	.	.	.	.	.	.	.	.	.	.	.	.
.	.	.	.	4F	.	4B	.	.	.	2E	.	.	.	.	.	.	.	.	.	2cc	.	.	.
.	.	.	.	4E	.	4A	.	.	.	.	.	.	.	4A	.	.	.	.	.	.	.	.	.
.	.	.	.	1D	.	1G	.	.	.	[1G	tol-	1d	-lis	4B	tol-	.	.	.	.	1dd	.	1b	-lis
.	.	.	.	.	.	.	.	.	.	.	.	.	.	4A	.	.	.	.	.	.	.	.	.
.	.	.	.	.	.	.	.	.	.	.	.	.	.	4G	.	.	.	.	.	.	.	.	.
.	.	.	.	.	.	.	.	.	.	.	.	.	.	4F	.	.	.	.	.	.	.	.	.
=27.	=27.	=27.	=27.	=27.	=27.	=27.	=27.	=27.	=27.	=27.	=27.	=27.	=27.	=27.	=27.	=27.	=27.	=27.	=27.	=27.	=27.	=27.	=27.
0r	.	0r	.	0C	-lis	2.c	-ca-	0G	.	2G]	.	2r	.	2.E	.	2r	.	0r	.	0ee	-lis	1.cc	pec-
.	.	.	.	.	.	.	.	.	.	2E	-lis	2G	pec-	.	.	1g	pec-	.	.	.	.	.	.
.	.	.	.	.	.	4d	.	.	.	.	.	.	.	4F	.	.	.	.	.	.	.	.	.
.	.	.	.	.	.	1e	.	.	.	1E	pec-	1c	-ca-	1G	-lis	.	.	.	.	.	.	.	.
.	.	.	.	.	.	.	.	.	.	.	.	.	.	.	.	4f	.	.	.	.	.	4b	.
.	.	.	.	.	.	.	.	.	.	.	.	.	.	.	.	4e	.	.	.	.	.	4a	.
=28	=28	=28	=28	=28	=28	=28	=28	=28	=28	=28	=28	=28	=28	=28	=28	=28	=28	=28	=28	=28	=28	=28	=28
0E	pec-	2r	.	0r	.	[0e	-ta	[0B	.	2.E	-ca-	1.B	.	0r	.	2e	-ca-	0r	.	0r	.	2.g	-ca-
.	.	1G	pec-	.	.	.	.	.	.	.	.	.	.	.	.	2.E	.	.	.	.	.	.	.
.	.	.	.	.	.	.	.	.	.	4F	.	.	.	.	.	.	.	.	.	.	.	4a	.
.	.	.	.	.	.	.	.	.	.	4G	.	.	.	.	.	.	.	.	.	.	.	4b	.
.	.	.	.	.	.	.	.	.	.	4A	.	.	.	.	.	4F	.	.	.	.	.	4cc	.
.	.	2E	.	.	.	.	.	.	.	2B	.	[2e	.	.	.	4G	.	.	.	.	.	[2b	.
.	.	.	.	.	.	.	.	.	.	.	.	.	.	.	.	4A	.	.	.	.	.	.	.
=29.	=29.	=29.	=29.	=29.	=29.	=29.	=29.	=29.	=29.	=29.	=29.	=29.	=29.	=29.	=29.	=29.	=29.	=29.	=29.	=29.	=29.	=29.	=29.
0E	-ca-	2.G	-ca-	0r	.	0e_	.	0B]	.	1E	.	2e]	.	1r	.	2B	.	0r	.	0r	.	4b]	.
.	.	.	.	.	.	.	.	.	.	.	.	.	.	.	.	.	.	.	.	.	.	4a	.
.	.	.	.	.	.	.	.	.	.	.	.	4d	.	.	.	2E	-ta,	.	.	.	.	4g#i	.
.	.	4A	.	.	.	.	.	.	.	.	.	4c	.	.	.	.	.	.	.	.	.	4f#i	.
.	.	1E	.	.	.	.	.	.	.	1G	.	1B	.	[1E	pec-	2r	.	.	.	.	.	1g#i	.
.	.	.	.	.	.	.	.	.	.	.	.	.	.	.	.	[2e	pec-	.	.	.	.	.	.
=30.	=30.	=30.	=30.	=30.	=30.	=30.	=30.	=30.	=30.	=30.	=30.	=30.	=30.	=30.	=30.	=30.	=30.	=30.	=30.	=30.	=30.	=30.	=30.
0C	.	0AA	-ta:	1r	.	0e]	.	0c	-ta	0E	-ta,	0A	-ta,	2E]	.	4e]	.	0r	.	1.cc	pec-	0a	-ta,
.	.	.	.	.	.	.	.	.	.	.	.	.	.	.	.	4d	.	.	.	.	.	.	.
.	.	.	.	.	.	.	.	.	.	.	.	.	.	1A	-ca-	4c	.	.	.	.	.	.	.
.	.	.	.	.	.	.	.	.	.	.	.	.	.	.	.	4B	.	.	.	.	.	.	.
.	.	.	.	1E	pec-	.	.	.	.	.	.	.	.	.	.	1A	.	.	.	.	.	.	.
.	.	.	.	.	.	.	.	.	.	.	.	.	.	4G	.	.	.	.	.	4b	.	.	.
.	.	.	.	.	.	.	.	.	.	.	.	.	.	4F	.	.	.	.	.	4a	.	.	.
=31	=31	=31	=31	=31	=31	=31	=31	=31	=31	=31	=31	=31	=31	=31	=31	=31	=31	=31	=31	=31	=31	=31	=31
[0E	.	0r	.	2E	-ca-	2.E	mun-	0B	mun-	0r	.	0r	.	2E	.	2E	-ca-	0e	pec-	2.g	-ca-	0r	.
.	.	.	.	1G	.	.	.	.	.	.	.	.	.	2.E	-ta	1B	.	.	.	.	.	.	.
.	.	.	.	.	.	4F	.	.	.	.	.	.	.	.	.	.	.	.	.	4a	.	.	.
.	.	.	.	.	.	4G	.	.	.	.	.	.	.	.	.	.	.	.	.	4b	.	.	.
.	.	.	.	.	.	4A	.	.	.	.	.	.	.	4F	.	.	.	.	.	4cc	.	.	.
.	.	.	.	2E	.	2B	.	.	.	.	.	.	.	4G	.	[2e	.	.	.	[2b	.	.	.
.	.	.	.	.	.	.	.	.	.	.	.	.	.	4A	.	.	.	.	.	.	.	.	.
=32.	=32.	=32.	=32.	=32.	=32.	=32.	=32.	=32.	=32.	=32.	=32.	=32.	=32.	=32.	=32.	=32.	=32.	=32.	=32.	=32.	=32.	=32.	=32.
0E]	.	0r	.	2.G	.	1E	.	0B	-di:	0r	.	0r	.	2B	.	2e]	.	0e	-ca-	4b]	.	0r	.
.	.	.	.	.	.	.	.	.	.	.	.	.	.	.	.	.	.	.	.	4a	.	.	.
.	.	.	.	.	.	.	.	.	.	.	.	.	.	2E	.	4d	.	.	.	4g#i	.	.	.
.	.	.	.	4A	.	.	.	.	.	.	.	.	.	.	.	4c	.	.	.	4f#i	.	.	.
.	.	.	.	1E	.	1G	.	.	.	.	.	.	.	2r	.	1B	.	.	.	1g#i	.	.	.
.	.	.	.	.	.	.	.	.	.	.	.	.	.	[2e	mun-	.	.	.	.	.	.	.	.
=33.	=33.	=33.	=33.	=33.	=33.	=33.	=33.	=33.	=33.	=33.	=33.	=33.	=33.	=33.	=33.	=33.	=33.	=33.	=33.	=33.	=33.	=33.	=33.
0F	-ta	0FF	mi-	1AA	-ta	1C	-di,	0r	.	0C	pec-	0A	pec-	4e]	.	1A	-ta	0c	.	1a	-ta,	1cc	pec-
.	.	.	.	.	.	.	.	.	.	.	.	.	.	4d	.	.	.	.	.	.	.	.	.
.	.	.	.	.	.	.	.	.	.	.	.	.	.	4c	.	.	.	.	.	.	.	.	.
.	.	.	.	.	.	.	.	.	.	.	.	.	.	4B	.	.	.	.	.	.	.	.	.
.	.	.	.	2r	.	1c	pec-	.	.	.	.	.	.	1A	-di,	2.c	mun-	.	.	1r	.	2cc	-ca-
.	.	.	.	[2C	mun-	.	.	.	.	.	.	.	.	.	.	.	.	.	.	.	.	[2cc	-ta
.	.	.	.	.	.	.	.	.	.	.	.	.	.	.	.	4d	.	.	.	.	.	.	.
=34	=34	=34	=34	=34	=34	=34	=34	=34	=34	=34	=34	=34	=34	=34	=34	=34	=34	=34	=34	=34	=34	=34	=34
0E	mun-	[0C	.	4C]	.	2c	-ca-	0r	.	2.C	-ca-	2r	.	1G	pec-	4e	.	[0e	.	1cc	pec-	2cc]	.
.	.	.	.	4D	.	.	.	.	.	.	.	.	.	.	.	4f	.	.	.	.	.	.	.
.	.	.	.	4E	.	1c	-ta	.	.	.	.	2.C	-ca-	.	.	2g	-di,	.	.	.	.	4b	.
.	.	.	.	4F	.	.	.	.	.	4D	.	.	.	.	.	.	.	.	.	.	.	4a	.
.	.	.	.	2G	.	.	.	.	.	4E	.	.	.	2.C	-ca-	2.g	mun-	.	.	2cc	-ca-	1g	.
.	.	.	.	.	.	.	.	.	.	4F	.	4D	.	.	.	.	.	.	.	.	.	.	.
.	.	.	.	2C	.	4B	.	.	.	2G	.	4E	.	.	.	.	.	.	.	[2cc	-ta	.	.
.	.	.	.	.	.	4A	.	.	.	.	.	4F	.	4D	.	4f	.	.	.	.	.	.	.
=35.	=35.	=35.	=35.	=35.	=35.	=35.	=35.	=35.	=35.	=35.	=35.	=35.	=35.	=35.	=35.	=35.	=35.	=35.	=35.	=35.	=35.	=35.	=35.
0E	-di:	0C]	.	2G	.	1G	mun-	0r	.	2C	.	2G	.	4E	.	4e	.	0e]	.	2cc]	.	1cc	.
.	.	.	.	.	.	.	.	.	.	.	.	.	.	4F	.	4d	.	.	.	.	.	.	.
.	.	.	.	2C	.	.	.	.	.	2G	.	2.c	-ta,	2G	.	2e	.	.	.	4b	.	.	.
.	.	.	.	.	.	.	.	.	.	.	.	.	.	.	.	.	.	.	.	4a	.	.	.
.	.	.	.	2G	.	1E	-di,	.	.	2C	-ta	.	.	[1G	-ta,	1g	-di,	.	.	1g	.	1r	.
.	.	.	.	.	.	.	.	.	.	.	.	4B	.	.	.	.	.	.	.	.	.	.	.
.	.	.	.	2C	.	.	.	.	.	[2c	mun-	2G	.	.	.	.	.	.	.	.	.	.	.
=36.	=36.	=36.	=36.	=36.	=36.	=36.	=36.	=36.	=36.	=36.	=36.	=36.	=36.	=36.	=36.	=36.	=36.	=36.	=36.	=36.	=36.	=36.	=36.
0r	.	0D	-se-	0F	-di:	2r	.	0r	.	2c]	.	2r	.	2G]	.	1.a	mun-	0f	-ta	1r	.	2r	.
.	.	.	.	.	.	4D	mun-	.	.	4B	.	2d	pec-	4F	.	.	.	.	.	.	.	1.dd	mun-
.	.	.	.	.	.	4E	.	.	.	4A	.	.	.	4E	.	.	.	.	.	.	.	.	.
.	.	.	.	.	.	4F	.	.	.	1A	.	1d	-ca-	1F	.	.	.	.	.	1f	mun-	.	.
.	.	.	.	.	.	4G	.	.	.	.	.	.	.	.	.	.	.	.	.	.	.	.	.
.	.	.	.	.	.	2A	.	.	.	.	.	.	.	.	.	4g	.	.	.	.	.	.	.
.	.	.	.	.	.	.	.	.	.	.	.	.	.	.	.	4f	.	.	.	.	.	.	.
=37	=37	=37	=37	=37	=37	=37	=37	=37	=37	=37	=37	=37	=37	=37	=37	=37	=37	=37	=37	=37	=37	=37	=37
0r	.	[0C	.	1G	mi-	0E	-di:	0c	mi-	0c	-di:	2G	-ta	1G	pec-	1e	-di:	0e	mun-	2.cc	.	4cc	.
.	.	.	.	.	.	.	.	.	.	.	.	.	.	.	.	.	.	.	.	.	.	4dd	.
.	.	.	.	.	.	.	.	.	.	.	.	1c	mun-	.	.	.	.	.	.	.	.	2.ee	.
.	.	.	.	.	.	.	.	.	.	.	.	.	.	.	.	.	.	.	.	4b	.	.	.
.	.	.	.	2E	-se-	.	.	.	.	.	.	.	.	2.c	-ca-	1g	mi-	.	.	4cc	.	.	.
.	.	.	.	.	.	.	.	.	.	.	.	.	.	.	.	.	.	.	.	4dd	.	4dd	.
.	.	.	.	[2G	-re-	.	.	.	.	.	.	4B	.	.	.	.	.	.	.	[2ee	.	4ee	.
.	.	.	.	.	.	.	.	.	.	.	.	4A	.	4B	.	.	.	.	.	.	.	4dd	.
=38.	=38.	=38.	=38.	=38.	=38.	=38.	=38.	=38.	=38.	=38.	=38.	=38.	=38.	=38.	=38.	=38.	=38.	=38.	=38.	=38.	=38.	=38.	=38.
0r	.	0C]	.	4G]	.	1r	.	0c	-se-	0r	.	2.G	.	4c	.	2e	-se-	0e	-di:	4ee]	.	1cc	.
.	.	.	.	4F	.	.	.	.	.	.	.	.	.	4d	.	.	.	.	.	4dd	.	.	.
.	.	.	.	4E	.	.	.	.	.	.	.	.	.	2e	.	2.g	-re-	.	.	4cc	.	.	.
.	.	.	.	4D	.	.	.	.	.	.	.	4F	.	.	.	.	.	.	.	4b	.	.	.
.	.	.	.	1C	-re,	1G	mi-	.	.	.	.	1E	.	1c	-ta	.	.	.	.	[1cc	.	1g	.
.	.	.	.	.	.	.	.	.	.	.	.	.	.	.	.	4f	.	.	.	.	.	.	.
.	.	.	.	.	.	.	.	.	.	.	.	.	.	.	.	4e	.	.	.	.	.	.	.
.	.	.	.	.	.	.	.	.	.	.	.	.	.	.	.	4d	.	.	.	.	.	.	.
=39.	=39.	=39.	=39.	=39.	=39.	=39.	=39.	=39.	=39.	=39.	=39.	=39.	=39.	=39.	=39.	=39.	=39.	=39.	=39.	=39.	=39.	=39.	=39.
0r	.	[0FF	-re-	1r	.	2A	-se-	0A	.	1c	mi-	0F	-di:	2.A	mun-	1c	-re,	0r	.	2cc]	.	0f	-di:
.	.	.	.	.	.	2.c	-re-	.	.	.	.	.	.	.	.	.	.	.	.	2a	.	.	.
.	.	.	.	.	.	.	.	.	.	.	.	.	.	4B	.	.	.	.	.	.	.	.	.
.	.	.	.	1C	mi-	.	.	.	.	2A	-se-	.	.	1c	.	2r	.	.	.	[1a	-di,	.	.
.	.	.	.	.	.	4B	.	.	.	.	.	.	.	.	.	.	.	.	.	.	.	.	.
.	.	.	.	.	.	4A	.	.	.	[2c	-re-	.	.	.	.	[2F	mi-	.	.	.	.	.	.
.	.	.	.	.	.	4G	.	.	.	.	.	.	.	.	.	.	.	.	.	.	.	.	.
=40	=40	=40	=40	=40	=40	=40	=40	=40	=40	=40	=40	=40	=40	=40	=40	=40	=40	=40	=40	=40	=40	=40	=40
0F	mi-	0FF]	.	2AA	-se-	1F	-re,	[0c	-re-	4c]	.	1c	mi-	1C	-di,	4F]	.	0r	.	1a]	.	2r	.
.	.	.	.	.	.	.	.	.	.	4B	.	.	.	.	.	4G	.	.	.	.	.	.	.
.	.	.	.	2.C	-re-	.	.	.	.	4A	.	.	.	.	.	4A	.	.	.	.	.	2.f	mi-
.	.	.	.	.	.	.	.	.	.	4G	.	.	.	.	.	4B	.	.	.	.	.	.	.
.	.	.	.	.	.	2r	.	.	.	1F	-re,	2A	-se-	1c	mun-	1c	.	.	.	2r	.	.	.
.	.	.	.	4BB	.	.	.	.	.	.	.	.	.	.	.	.	.	.	.	.	.	4g	.
.	.	.	.	4AA	.	2C	mi-	.	.	.	.	[2c	-re-	.	.	.	.	.	.	[2f	mun-	4a	.
.	.	.	.	4GG	.	.	.	.	.	.	.	.	.	.	.	.	.	.	.	.	.	4b	.
=41.	=41.	=41.	=41.	=41.	=41.	=41.	=41.	=41.	=41.	=41.	=41.	=41.	=41.	=41.	=41.	=41.	=41.	=41.	=41.	=41.	=41.	=41.	=41.
0F	-se-	0FF	-re,	1FF	-re	2.F	-se-	0c]	.	2r	.	4c]	.	2A	.	4d	-se-	0r	.	4f]	.	1cc	.
.	.	.	.	.	.	.	.	.	.	.	.	4B	.	.	.	4e	.	.	.	4g	.	.	.
.	.	.	.	.	.	.	.	.	.	2C	mi-	4A	.	2.c	.	2.f	-re-	.	.	4a	.	.	.
.	.	.	.	.	.	4G	.	.	.	.	.	4G	.	.	.	.	.	.	.	4b	.	.	.
.	.	.	.	1C	.	1A	.	.	.	[1F	-se-	[1F	.	.	.	.	.	.	.	1cc	.	2a	-se-
.	.	.	.	.	.	.	.	.	.	.	.	.	.	4B	.	4g	.	.	.	.	.	.	.
.	.	.	.	.	.	.	.	.	.	.	.	.	.	4A	.	2a	.	.	.	.	.	2cc	.
.	.	.	.	.	.	.	.	.	.	.	.	.	.	4G	.	.	.	.	.	.	.	.	.
=42.	=42.	=42.	=42.	=42.	=42.	=42.	=42.	=42.	=42.	=42.	=42.	=42.	=42.	=42.	=42.	=42.	=42.	=42.	=42.	=42.	=42.	=42.	=42.
0D	-re-	0BB-	.	1r	.	1.B-	-re-	0d	-re	2F]	.	2F]	.	0F	-di:	2.f	-re,	0r	.	1f	-di,	1b-	-re-
.	.	.	.	.	.	.	.	.	.	4E	.	4G	.	.	.	.	.	.	.	.	.	.	.
.	.	.	.	.	.	.	.	.	.	4D	.	4A	.	.	.	8eL	.	.	.	.	.	.	.
.	.	.	.	.	.	.	.	.	.	.	.	.	.	.	.	8dJ	.	.	.	.	.	.	.
.	.	.	.	1BB-	no-	.	.	.	.	[1F	-re-	1B-	-re,	.	.	4c	.	.	.	1r	.	4a	.
.	.	.	.	.	.	.	.	.	.	.	.	.	.	.	.	4B-	.	.	.	.	.	4g	.
.	.	.	.	.	.	4A	.	.	.	.	.	.	.	.	.	4A	.	.	.	.	.	4f	.
.	.	.	.	.	.	4G	.	.	.	.	.	.	.	.	.	4B-i	.	.	.	.	.	4g	.
=43	=43	=43	=43	=43	=43	=43	=43	=43	=43	=43	=43	=43	=43	=43	=43	=43	=43	=43	=43	=43	=43	=43	=43
[0F	.	[0FF	.	[0C	.	2F	.	0c	no-	2F]	.	1.A	mi-	1r	.	1.c	mi-	0f	mi-	2.f	mun-	1a	-re,
.	.	.	.	.	.	2.c	.	.	.	4E	.	.	.	.	.	.	.	.	.	.	.	.	.
.	.	.	.	.	.	.	.	.	.	4D	.	.	.	.	.	.	.	.	.	4g	.	.	.
.	.	.	.	.	.	.	.	.	.	1C	.	.	.	2r	.	.	.	.	.	4a	.	2.f	mi-
.	.	.	.	.	.	4B	.	.	.	.	.	.	.	.	.	.	.	.	.	4b	.	.	.
.	.	.	.	.	.	4A	.	.	.	.	.	[2F	-se-	[2c	mi-	[2A	.	.	.	2cc	-di:	.	.
.	.	.	.	.	.	4G	.	.	.	.	.	.	.	.	.	.	.	.	.	.	.	4g	.
=44.	=44.	=44.	=44.	=44.	=44.	=44.	=44.	=44.	=44.	=44.	=44.	=44.	=44.	=44.	=44.	=44.	=44.	=44.	=44.	=44.	=44.	=44.	=44.
0F]	.	0FF]	.	0C]	.	1F	.	0c	-bis,	0A	-re,	2F]	.	4c]	.	2A]	.	0f	-se-	2r	.	4a	.
.	.	.	.	.	.	.	.	.	.	.	.	.	.	4B	.	.	.	.	.	.	.	4b	.
.	.	.	.	.	.	.	.	.	.	.	.	4E	.	4A	.	2F	-se-	.	.	2.f	mi-	2.cc	-se-
.	.	.	.	.	.	.	.	.	.	.	.	4D	.	4G	.	.	.	.	.	.	.	.	.
.	.	.	.	.	.	1c	-re	.	.	.	.	1C	-re-	1F	.	4F	-re-	.	.	.	.	.	.
.	.	.	.	.	.	.	.	.	.	.	.	.	.	.	.	4G	.	.	.	4g	.	4b	.
.	.	.	.	.	.	.	.	.	.	.	.	.	.	.	.	4A	.	.	.	2a	-se-	[2a	-re-
.	.	.	.	.	.	.	.	.	.	.	.	.	.	.	.	4F	.	.	.	.	.	.	.
=45.	=45.	=45.	=45.	=45.	=45.	=45.	=45.	=45.	=45.	=45.	=45.	=45.	=45.	=45.	=45.	=45.	=45.	=45.	=45.	=45.	=45.	=45.	=45.
0G	-re	0r	.	0GG	-bis,	2r	.	0r	.	0B	.	0D	-re,	4d	-se-	4G	-re,	0d	-re-	2d	-re-	2a]	.
.	.	.	.	.	.	.	.	.	.	.	.	.	.	4c	.	4A	.	.	.	.	.	.	.
.	.	.	.	.	.	2.G	mi-	.	.	.	.	.	.	4B	.	4B	.	.	.	1.dd	-re	4g	.
.	.	.	.	.	.	.	.	.	.	.	.	.	.	4A	.	4c	.	.	.	.	.	4f	.
.	.	.	.	.	.	.	.	.	.	.	.	.	.	1G	-re-	1d	.	.	.	.	.	1g	-re
.	.	.	.	.	.	4F	.	.	.	.	.	.	.	.	.	.	.	.	.	.	.	.	.
.	.	.	.	.	.	2D	-se-	.	.	.	.	.	.	.	.	.	.	.	.	.	.	.	.
=46	=46	=46	=46	=46	=46	=46	=46	=46	=46	=46	=46	=46	=46	=46	=46	=46	=46	=46	=46	=46	=46	=46	=46
0F	no-	0D	mi-	1r	.	4D	-re-	0r	.	1.A	mi-	1.D	mi-	0A	-re,	2.d	mi-	[0f	.	2dd	no-	2a	no-
.	.	.	.	.	.	4E	.	.	.	.	.	.	.	.	.	.	.	.	.	.	.	.	.
.	.	.	.	.	.	4F	.	.	.	.	.	.	.	.	.	.	.	.	.	4cc	.	1dd	.
.	.	.	.	.	.	4G	.	.	.	.	.	.	.	.	.	4e	.	.	.	4b	.	.	.
.	.	.	.	2r	.	1A	-re,	.	.	.	.	.	.	.	.	4f	.	.	.	1a	.	.	.
.	.	.	.	.	.	.	.	.	.	.	.	.	.	.	.	4g	.	.	.	.	.	.	.
.	.	.	.	[2D	mi-	.	.	.	.	[2d	-se-	[2F	-se-	.	.	[2a	-se-	.	.	.	.	4cc	.
.	.	.	.	.	.	.	.	.	.	.	.	.	.	.	.	.	.	.	.	.	.	4b	.
=47.	=47.	=47.	=47.	=47.	=47.	=47.	=47.	=47.	=47.	=47.	=47.	=47.	=47.	=47.	=47.	=47.	=47.	=47.	=47.	=47.	=47.	=47.	=47.
0F	-bis,	1D	-se-	2D]	.	1r	.	0r	.	2d]	.	2F]	.	0r	.	4a]	.	0f]	.	1.dd	.	0a	.
.	.	.	.	.	.	.	.	.	.	.	.	.	.	.	.	4g	.	.	.	.	.	.	.
.	.	.	.	2E	-se-	.	.	.	.	4c	.	2G	.	.	.	4f#i	.	.	.	.	.	.	.
.	.	.	.	.	.	.	.	.	.	4B	.	.	.	.	.	4e	.	.	.	.	.	.	.
.	.	1D	-re-	1F	-re-	[1d	mi-	.	.	1A	-re-	1A	-re-	.	.	1f#i	-re-	.	.	.	.	.	.
.	.	.	.	.	.	.	.	.	.	.	.	.	.	.	.	.	.	.	.	2a	.	.	.
=48.	=48.	=48.	=48.	=48.	=48.	=48.	=48.	=48.	=48.	=48.	=48.	=48.	=48.	=48.	=48.	=48.	=48.	=48.	=48.	=48.	=48.	=48.	=48.
0r	.	0GG	-re	0D	-re,	2d]	.	0r	.	0G	-re,	2B	-re,	2r	.	1g	-re,	0g	-re	2b	.	0g	.
.	.	.	.	.	.	1B	-se-	.	.	.	.	1d	mi-	2.G	mi-	.	.	.	.	1g	.	.	.
.	.	.	.	.	.	.	.	.	.	.	.	.	.	.	.	2r	.	.	.	.	.	.	.
.	.	.	.	.	.	.	.	.	.	.	.	.	.	4A	.	.	.	.	.	.	.	.	.
.	.	.	.	.	.	4A	.	.	.	.	.	4c	.	2B	-se-	2d	mi-	.	.	2d	.	.	.
.	.	.	.	.	.	4G	.	.	.	.	.	4B	.	.	.	.	.	.	.	.	.	.	.
=49	=49	=49	=49	=49	=49	=49	=49	=49	=49	=49	=49	=49	=49	=49	=49	=49	=49	=49	=49	=49	=49	=49	=49
0r	.	[0D	no-	1r	.	2A	.	0d	mi-	0r	.	1.A	-se-	2A	.	2.d	-se-	0f	no-	2.f	.	2a	.
.	.	.	.	.	.	1d	-re-	.	.	.	.	.	.	1d	-re-	.	.	.	.	.	.	1f	.
.	.	.	.	.	.	.	.	.	.	.	.	.	.	.	.	4e	.	.	.	4e	.	.	.
.	.	.	.	2r	.	.	.	.	.	.	.	.	.	.	.	2.f	.	.	.	4f	.	.	.
.	.	.	.	.	.	.	.	.	.	.	.	.	.	.	.	.	.	.	.	4g	.	.	.
.	.	.	.	[2D	mi-	4c	.	.	.	.	.	[2d	-re-	4c	.	.	.	.	.	[2a	.	4e	.
.	.	.	.	.	.	4B	.	.	.	.	.	.	.	4B	.	4e	.	.	.	.	.	4d	.
=50.	=50.	=50.	=50.	=50.	=50.	=50.	=50.	=50.	=50.	=50.	=50.	=50.	=50.	=50.	=50.	=50.	=50.	=50.	=50.	=50.	=50.	=50.	=50.
0r	.	0D]	.	2D]	.	2A	.	0d	-se-	0r	.	2d]	.	1A	-re,	4f	.	0f	-bis,	4a]	.	1d	-bis,
.	.	.	.	.	.	.	.	.	.	.	.	.	.	.	.	4g	.	.	.	4g	.	.	.
.	.	.	.	2E	-se-	2G	.	.	.	.	.	4c	.	.	.	2.a	-re-	.	.	4f	.	.	.
.	.	.	.	.	.	.	.	.	.	.	.	4B	.	.	.	.	.	.	.	4e	.	.	.
.	.	.	.	1F	-re-	1A	-re	.	.	.	.	1A	.	[1d	mi-	.	.	.	.	1f	-bis,	[1dd	mi-
.	.	.	.	.	.	.	.	.	.	.	.	.	.	.	.	4g	.	.	.	.	.	.	.
.	.	.	.	.	.	.	.	.	.	.	.	.	.	.	.	4f	.	.	.	.	.	.	.
.	.	.	.	.	.	.	.	.	.	.	.	.	.	.	.	4e	.	.	.	.	.	.	.
=51.	=51.	=51.	=51.	=51.	=51.	=51.	=51.	=51.	=51.	=51.	=51.	=51.	=51.	=51.	=51.	=51.	=51.	=51.	=51.	=51.	=51.	=51.	=51.
0r	.	0GG	.	1D	-re	1B	no-	0B	.	1r	.	1G	-re,	2d]	.	1d	-re	0r	.	1.dd	mi-	1dd]	.
.	.	.	.	.	.	.	.	.	.	.	.	.	.	1B	-se-	.	.	.	.	.	.	.	.
.	.	.	.	1r	.	[1G	.	.	.	1B	mi-	[1d	mi-	.	.	1r	.	.	.	.	.	1b	-se-
.	.	.	.	.	.	.	.	.	.	.	.	.	.	2G	-re-	.	.	.	.	[2b	-se-	.	.
=52	=52	=52	=52	=52	=52	=52	=52	=52	=52	=52	=52	=52	=52	=52	=52	=52	=52	=52	=52	=52	=52	=52	=52
0G	mi-	[0GG	-bis.	0r	.	2G]	.	[0d	-re-	1.B	-se-	2d]	.	1G	-re	1.d	no-	0r	.	2b]	.	1dd	-re-
.	.	.	.	.	.	4F	.	.	.	.	.	1B	-se-	.	.	.	.	.	.	2g	-re-	.	.
.	.	.	.	.	.	4E	.	.	.	.	.	.	.	.	.	.	.	.	.	.	.	.	.
.	.	.	.	.	.	1D	-bis,	.	.	.	.	.	.	1D	.	.	.	.	.	1g	-re,	[1b	.
.	.	.	.	.	.	.	.	.	.	2B	-re-	2G	.	.	.	[2B	.	.	.	.	.	.	.
=53.	=53.	=53.	=53.	=53.	=53.	=53.	=53.	=53.	=53.	=53.	=53.	=53.	=53.	=53.	=53.	=53.	=53.	=53.	=53.	=53.	=53.	=53.	=53.
0G	-se-	0GG]	.	0r	.	1r	.	0d]	.	1B	-re	1G	-re-	0D	no-	2B]	.	0r	.	1dd	mi-	1b]	.
.	.	.	.	.	.	.	.	.	.	.	.	.	.	.	.	2G	.	.	.	.	.	.	.
.	.	.	.	.	.	[1G	no-	.	.	1r	.	1D	-re	.	.	[1g	.	.	.	1b	-se-	1dd	.
=54.	=54.	=54.	=54.	=54.	=54.	=54.	=54.	=54.	=54.	=54.	=54.	=54.	=54.	=54.	=54.	=54.	=54.	=54.	=54.	=54.	=54.	=54.	=54.
0E	.	0C	.	0r	.	2G]	.	0e	-re	2.c	no-	1r	.	1.G	.	2g]	.	0r	.	2cc	.	2.ee	-re
.	.	.	.	.	.	4A	.	.	.	.	.	.	.	.	.	4f	.	.	.	1ee	-re-	.	.
.	.	.	.	.	.	4B	.	.	.	4B	.	.	.	.	.	4e	.	.	.	.	.	4dd	.
.	.	.	.	.	.	1c	-bis,	.	.	2G	.	[1G	no-	.	.	1e	-bis,	.	.	.	.	4cc	.
.	.	.	.	.	.	.	.	.	.	.	.	.	.	.	.	.	.	.	.	.	.	4dd	.
.	.	.	.	.	.	.	.	.	.	2A	.	.	.	4F	.	.	.	.	.	4dd	.	4ee	.
.	.	.	.	.	.	.	.	.	.	.	.	.	.	4E	.	.	.	.	.	4cc	.	4cc	.
=55	=55	=55	=55	=55	=55	=55	=55	=55	=55	=55	=55	=55	=55	=55	=55	=55	=55	=55	=55	=55	=55	=55	=55
[0G	-re-	[0GGl	.	0r	.	[0d	no-	0d	no-	0B	-bis,	2G]	.	2D	.	1r	.	0g	no-	1b	-re	1.dd	no-
.	.	.	.	.	.	.	.	.	.	.	.	4F	.	1.G	-bis,	.	.	.	.	.	.	.	.
.	.	.	.	.	.	.	.	.	.	.	.	4E	.	.	.	.	.	.	.	.	.	.	.
.	.	.	.	.	.	.	.	.	.	.	.	1D	-bis,	.	.	[1g	no-	.	.	[1dd	no-	.	.
.	.	.	.	.	.	.	.	.	.	.	.	.	.	.	.	.	.	.	.	.	.	[2b	.
=56.	=56.	=56.	=56.	=56.	=56.	=56.	=56.	=56.	=56.	=56.	=56.	=56.	=56.	=56.	=56.	=56.	=56.	=56.	=56.	=56.	=56.	=56.	=56.
0G]	.	0GGl_	.	1.D	no-	1d]	.	0d	-bis,	1r	.	0r	.	0r	.	2g]	.	[0gl	-bis.	2dd]	.	2b]	.
.	.	.	.	.	.	.	.	.	.	.	.	.	.	.	.	4f	.	.	.	1b	.	2g	.
.	.	.	.	.	.	.	.	.	.	.	.	.	.	.	.	4e	.	.	.	.	.	.	.
.	.	.	.	.	.	[1B	.	.	.	[1d	mi-	.	.	.	.	2.d	.	.	.	.	.	1g	.
.	.	.	.	[2BB	.	.	.	.	.	.	.	.	.	.	.	.	.	.	.	2g	.	.	.
.	.	.	.	.	.	.	.	.	.	.	.	.	.	.	.	4c	.	.	.	.	.	.	.
=57.	=57.	=57.	=57.	=57.	=57.	=57.	=57.	=57.	=57.	=57.	=57.	=57.	=57.	=57.	=57.	=57.	=57.	=57.	=57.	=57.	=57.	=57.	=57.
0G	-re	0GGl_	.	2BB]	.	1B]	.	0r	.	2d]	.	1.d	mi-	1r	.	[0Bl	-bis.	0gl_	.	1g	.	0r	.
.	.	.	.	2GG	.	.	.	.	.	1B	-se-	.	.	.	.	.	.	.	.	.	.	.	.
.	.	.	.	1GG	.	1G	.	.	.	.	.	.	.	[1d	mi-	.	.	.	.	1r	.	.	.
.	.	.	.	.	.	.	.	.	.	2G	-re-	[2B	-se-	.	.	.	.	.	.	.	.	.	.
=58	=58	=58	=58	=58	=58	=58	=58	=58	=58	=58	=58	=58	=58	=58	=58	=58	=58	=58	=58	=58	=58	=58	=58
*	*	*	*	*^	*	*	*	*	*	*	*	*	*	*	*	*	*	*	*	*	*	*	*
0G	no-	0GG_	.	[0GGl	[y0Dl	-bis.	[0Gl	-bis.	0d	no-	1G	-re	2B]	.	2d]	.	0B_	.	0g_	.	[0bl	-bis.	[0ddl	-bis.
.	.	.	.	.	.	.	.	.	.	.	.	.	2G	.	1B	-se-	.	.	.	.	.	.	.	.
.	.	.	.	.	.	.	.	.	.	.	1D	no-	1G	-re-	.	.	.	.	.	.	.	.	.	.
.	.	.	.	.	.	.	.	.	.	.	.	.	.	.	2G	-re-	.	.	.	.	.	.	.	.
=59.	=59.	=59.	=59.	=59.	=59.	=59.	=59.	=59.	=59.	=59.	=59.	=59.	=59.	=59.	=59.	=59.	=59.	=59.	=59.	=59.	=59.	=59.	=59.	=59.
[0Gl	-bis.	0GG_	.	0GG_yy	0D_yy	.	0G_	.	[0dl	-bis.	[0Bl	-bis.	1D	-re	1G	-re	0B_	.	0g_	.	0b_	.	0dd_	.
.	.	.	.	.	.	.	.	.	.	.	.	.	1d	no-	1G	no-	.	.	.	.	.	.	.	.
=60.	=60.	=60.	=60.	=60.	=60.	=60.	=60.	=60.	=60.	=60.	=60.	=60.	=60.	=60.	=60.	=60.	=60.	=60.	=60.	=60.	=60.	=60.	=60.	=60.
0G]	.	0GG]	.	0GG]yy	0D]yy	.	0G]	.	0d]	.	0B]	.	0dl	-bis.	0Dl	-bis.	0B]	.	0g]	.	0b]	.	0dd]	.
*	*	*	*	*v	*v	*	*	*	*	8	*	*	*	*	*	*	*	*	*	*	*	*	*	*
==	==	==	==	==	==	==	==	==	==	==	==	==	==	==	==	==	==	==	==	==	==	==	==
*-	*-	*-	*-	*-	*-	*-	*-	*-	*-	*-	*-	*-	*-	*-	*-	*-	*-	*-	*-	*-	*-	*-	*-
!!!RDF**kern: l=long note in original notation
!!!RDF**kern: i=editorial accidental
!!!RDF**kern: V=start of tuplet marker
!!!RDF**kern: Z=end of tuplet marker
!!!ENC:	Legge/Rodin
!!!END:	2014/08/07/
!!!EED:	Jesse Rodin
!!!EEV:	2014/08/16/
!!!ONB:	Translated from MusicXML and edited on 2014/08/16/ by Craig Sapp
!!muse2ps: T^@{OPR}^u^@{ONM}{. }@{OTL}^C^@{COM}^i2I150v95,95,155,95,95,155,95,95,155,95,95,100z16Q1c120t200s^[(...)(...)(...)(...)]^
